X: 16
M: C|
L: 1/8
K: D
fa ea fa ea | (gf)(ed) d3 |] fg |\
abab agfe | dede dB AG |\
gfed cdef | (gf)(ed) d3 |]


